svgs/sharp-solid/mouse-field.svg

<svg xmlns="http://www.w3.org/2000/svg" viewBox="0 0 512 512"><!--! Font Awesome Pro 6.6.0 by @fontawesome - https://fontawesome.com License - https://fontawesome.com/license (Commercial License) Copyright 2024 Fonticons, Inc. --><path d="M396.2 113.6c2.5-8.1 3.8-16.7 3.8-25.6c0-48.6-39.4-88-88-88s-88 39.4-88 88c0 29.8 14.8 56.1 37.4 72l-5.4 0c-88.4 0-160 71.6-160 160l0 48-24 0c-39.8 0-72 32.2-72 72s32.2 72 72 72l384 0 24 0 0-48-24 0L72 464c-13.3 0-24-10.7-24-24s10.7-24 24-24l24 0 136 0 8 0 19 0 133 0 24 0 0-24 0-16 0-16.8-15.8-5.7-49.9-18.2 23.8-63.5c2 .1 4 .2 6 .2L512 272l0-23.1c0-43-19.8-81.4-50.8-106.5C473 127.4 480 108.5 480 88c0-46.4-35.9-84.4-81.4-87.8C419.2 20.6 432 48.8 432 80c0 14.5-2.8 28.4-7.8 41.1c-8.9-3.4-18.3-6-28-7.5zM400 196a20 20 0 1 1 40 0 20 20 0 1 1 -40 0zM312 48c22.1 0 40 17.9 40 40l0 40-40 0c-22.1 0-40-17.9-40-40s17.9-40 40-40z"/></svg>

<svg xmlns="http://www.w3.org/2000/svg" viewBox="0 0 512 512"><!--! Font Awesome Pro 6.4.0 by @fontawesome - https://fontawesome.com License - https://fontawesome.com/license (Commercial License) Copyright 2023 Fonticons, Inc. --><path d="M396.2 113.6c2.5-8.1 3.8-16.7 3.8-25.6c0-48.6-39.4-88-88-88s-88 39.4-88 88c0 29.8 14.8 56.1 37.4 72H256c-88.4 0-160 71.6-160 160v48H72c-39.8 0-72 32.2-72 72s32.2 72 72 72H456h24V464H456 72c-13.3 0-24-10.7-24-24s10.7-24 24-24H96 232h8 19H392h24V392 376 359.2l-15.8-5.7-49.9-18.2 23.8-63.5c2 .1 4 .2 6 .2H512V248.9c0-43-19.8-81.4-50.8-106.5C473 127.4 480 108.5 480 88c0-46.4-35.9-84.4-81.4-87.8C419.2 20.6 432 48.8 432 80c0 14.5-2.8 28.4-7.8 41.1c-8.9-3.4-18.3-6-28-7.5zM400 196a20 20 0 1 1 40 0 20 20 0 1 1 -40 0zM312 48c22.1 0 40 17.9 40 40v40H312c-22.1 0-40-17.9-40-40s17.9-40 40-40z"/></svg>
